X:12
T:Bonnie Kate
R:reel
C:Howie MacDonald
D:Howie, Dave  & Mac
Z:Paul Stewart Cranford (P.S.C.), <http://www.cranfordpub.com>
L:1/8
M:C|
Q:333
K:D
AFdF (B/c/d) AF|DFAF EA,CE|DFAF DGBd|[1ceAc defd:|[2ceAc defg||
||({f/g/}a2) fd (f/g/a) fd|(f/g/a) fd cdef|g2 gf gbag|fdec defg|
({f/g/}a2) fd (f/g/a) fd|(f/g/a) fd cdef|gdBd gbag|fdec defd|]
% if none of this makes sense, go to http://www.cranfordpub.com/tunes/abcs
